X: 174
T:Cajun Fire
M:6/8
L:1/8
F:http://blackrosetheband.googlepages.com/ABCTUNES.ABC May 2009
C:by Rick Weidley
S:copyright September 20, 1994
R:jig
K:D
|: "D"f2f fed | "G"g2g gfe | "D"f2f fed | "G"g2g gfe |
"D"f2f fed | "G"g2g gfe |1 "D"Adf afd | "A"(e3e) z2 :|2 "D"Adf "A"ecA |
"D"(d3d) z2 ||
"G"ggg gab | "D"afd afd | "G"ggg gab | "D"a>aa a3 |
"G"ggg gab | "D"afd afd | "G"Bdg bgd | "A"ceg a z2||
"D"f2f fed | "G"g2g gfe | "D"f2f fed | "G"g2g gfe |
"D"f2f fed | "G"g2g gfe | "D"Adf "A"ecA | "D"(d3d) z2||

